!!!OTL: WACH AUF MEIN HORT VERNIMM MEIN WORT
!!!ARE: Europa, Mitteleuropa, Deutschland
!!!SCT: Z0306
!!!YEM: Copyright 1995, estate of Helmut Schaffrath.
**kern
*ICvox
*Ivox
*M6/8
*k[f#]
*G:
{8d
=1
4g
8b
4dd
8d
=2
4g
8b
4dd}
{8b
=3
8g
4b
4dd
8b
=4
4.a
4a}
{8dd
=5
4dd
8dd
4ee
8dd
=6
4cc
8cc
4dd}
{8cc
=7
4b
8g
4cc
8b
=8
4.a
4d}
{8dd
=9
4dd
8dd
4ee
8dd
=10
4cc
8a
4dd}
{8cc
=11
4b
8g
4cc
8b
=12
4a
8g
4a
8f#
=13
4.g
4g}
==
!!!AGN: Lyrisches Lied, Romanze, Tage - Lied
!!!ONB: ESAC (Essen Associative Code) Database: ZUCCAL
!!!AMT: compound duple
!!!AIN: vox
!!!EED: Helmut Schaffrath
!!!EEV: 1.0
*-
